X:1
T:Sweet Will of God
T:Sweet Will of God
T:Lelia Naylor Morris
T:Lelia Naylor Morris, 1900
T:Public Domain Courtesy of the Cyber Hymnal™
T:Public Domain Courtesy of the Cyber Hymnal™
C:Lelia Naylor Morris
Z:Public Domain
Z:Courtesy of the Cyber Hymnal™
%%score ( 1 2 ) ( 3 4 )
L:1/8
Q:1/4=110
M:4/4
K:Bb
V:1 treble 
V:2 treble 
V:3 bass 
V:4 bass 
V:1
 [DF][B,D][CE] | [DF]3 [DG] (FB) (FG) | [EA]2 [EA]3 [EA][EG][EF] | %3
w: 1.~My stub- born|will at last * hath *|yield- ed; I would be|
w: 2.~I’m tired of|sin, foot- sore * and *|wea- ry, The dark- some|
w: 3.~Thy pre- cious|will, O con- * quering *|Sav- ior, Doth now em-|
w: 4.~Shut in with|Thee, O Lord, * for- *|ev- er, My way- ward|
 [EA]3 [EG] ([DF][EG]) ([CE][DF]) | [B,D]4 z [Bd][Ad][Gd] | [^Fd]4- [Fd][FA][GB][Gc] | %6
w: Thine, and Thine * a- *|lone; And this the|prayer * my lips are|
w: path hath drear- * y *|grown, But now a|light * has ris’n to|
w: brace and com- * pass *|me; All dis- cords|hushed, * my peace a|
w: feet no more * to *|roam; What power from|Thee * my soul can|
 [^Fd]2 [Fd]3 [Ge]"^riten."[=Fd][Ec] | [^CB][CG] (F2 B2) A2 | [DB]4 z2 ||[M:3/4]"^Refrain" [DF]2 | %10
w: bring- ing, Lord, let in|me Thy will * be|done.||
w: cheer me; I find in|Thee my star, * my|sun.||
w: riv- er, My soul, a|pris- oned bird, * set|free.|Sweet|
w: sev- er? The cen- ter|of God’s will * my|home.||
 (F3 F) (FG) | [DF]2 z2 [DF]2 | (F3 G) (FG) | [DF]2 [B,D]2 [DF]2 | [DB]4 [FB]2 | %15
w: |||||
w: |||||
w: will * of *|God, still|fold * me *|clos- er; Till|I am|
w: |||||
 ([GB]3 [FA]) [EG]2 | [DF]4 [CE]2 | [B,D]4 [DF]2 | (F3 G) ([EA][Fe]) | ([Ge]2 [Fd]2) [DF]2 | %20
w: |||||
w: |||||
w: whol- * ly|lost in|Thee; Sweet|will * of *|God, * still|
w: |||||
 (F3 A) ([Ec][Ge]) | [Ge]2 [Fd]2 [_AB]2 | ([GB]3 [FA]) [EG]2 | ([DF]2 [FB]2) (ce) | [Fd]4 [Ec]2 | %25
w: |||||
w: |||||
w: fold * me *|clos- er, Till|I * am|whol- * ly *|lost in|
w: |||||
 [DB]4 |] %26
w: |
w: |
w: Thee.|
w: |
V:2
 x3 | x4 D2 D2 | x8 | x8 | x8 | x8 | x8 | x2 D4 (=CE) | x6 ||[M:3/4] x2 | E4 E2 | x6 | E4 E2 | x6 | %14
 x6 | x6 | x6 | x6 | E4 x2 | x6 | E4 x2 | x6 | x6 | x4 G2 | x6 | x4 |] %26
V:3
 z3 | B,,2 [D,F,B,]2 B,,2 [D,F,B,]2 | C,2 [C,F,A,]2 [C,F,A,]2 z2 | F,,2 [C,F,A,]2 F,,2 [C,F,A,]2 | %4
 B,,2 [D,F,]2 [D,F,]2 z2 | z ([D,A,][D,A,][D,A,] [D,A,])[A,C][G,B,][E,A,] | %6
 [D,A,]2 [D,A,]3 [C,C][D,=B,][E,G,] | [=E,G,][E,B,] [F,B,]2 F,2 F,2 | [B,,F,]4 z2 || %9
[M:3/4] [B,,B,]2 | [C,A,]4 [F,A,]2 | [B,,B,]2 z2 [B,,B,]2 | [C,A,]4 [F,A,]2 | %13
 [B,,B,]2 [B,,F,]2 [B,,B,]2 | [B,,F,]4 [D,B,]2 | [E,B,]4 [E,B,]2 | [F,B,]4 [F,A,]2 | %17
 [B,,F,]4 [B,,B,]2 | [F,A,]4 [F,A,]2 | [B,,B,]4 [B,,B,]2 | [F,A,]4 [F,A,]2 | %21
 [B,,B,]2 [B,,B,]2 [D,B,]2 | [E,B,]4 [E,B,]2 | B,4 [E,B,]2 | [F,B,]4 [F,A,]2 | [B,,B,]4 |] %26
V:4
 x3 | x8 | x8 | x8 | x8 | x8 | x8 | x8 | x6 ||[M:3/4] x2 | x6 | x6 | x6 | x6 | x6 | x6 | x6 | x6 | %18
 x6 | x6 | x6 | x6 | x6 | (B,,2 D,2) x2 | x6 | x4 |] %26

